!!!COM: Robert Schumann
!!!CNT: Deutscher
!!!TXO: Deutsche 
!!!OTL: Su2sser Freund, du blickest
!!!OPR: Frauenliebe und Leben
!!!OPS: Opus 42
!!!ONM: No. 6
!!!LYR: Chamisso
!!!ENC: Brian Bice
!!!YOR: Sa2mtliche Lieder, vol. 1, C.F. Peters
!!!ODT: 1840/
!!NB: Vocal melody and text only encoded.
**kern	**silbe
*clefG2	*
*k[f#]	*
*M4/4	*
=2	=2
4r	.
{[2dd	{Su2-
8dd]	|
8a#	-sser
=3	=3
4.b	Freund,
8g	du
8g	blick-
8g	-est
8.g	mich
16f#	ver-
=4	=4
8.b	-wun-
16a	-dert
4a}	an,}
2r	.
=5	=5
4r	.
{[2dd	{kannst
8dd]	|
8a#	es
=6	=6
4.b	nicht
8g	be-
8g	-grei-
8g	-fen,
8g	wie
8f#	ich
=7	=7
8.b	wei-
16a	-nen
4a}	kann;}
4r	.
{8.g	{lass
16a	der
=8	=8
4.b	feuch-
8b	-ten
4.dd	Per-
8dd	-len
=9	=9
8.cc	un-
16cc	-ge-
8g#	-wohn-
8g#	-te
4a}	Zier}
4r	.
=10	=10
{8.ee	{freu-
16a	-dig
8a	hell
8a	er-
8a	-zit-
8a#	-tern
8.b	in
16g	dem
=11	=11
8.g	Au-
16f#	-ge
4f#}	mir.}
2r	.
=12	=12
4r	.
{[2dd	{Wie
8dd]	|
8a#	so
=13	=13
4.b	bang
8g	mein
8g	Bu-
8g	-sen,
8.g	wie
16f#	so
=14	=14
8.b	won-
16a	-ne-
4a}	-voll!}
2r	.
=15	=15
4r	.
{[2dd	{wu2sst'
8dd]	|
8a#	ich
=16	=16
4.b	nur
8g	mit
8g	Wor-
8g	-ten,
8g	wie
8f#	ich's
=17	=17
8.b	sa-
16a	-gen
4a}	soll;}
4r	.
{8.g	{komm
16a	und
=18	=18
4.b	birg
8b	dein
4.dd	Ant-
8dd	-litz
=19	=19
8.cc	hier
16cc	an
8g#	mei-
8g#	-ner
4a}	Brust,}
4r	.
=20	=20
{8a	{will
8a	ins
(12a	Ohr
12b)	|
12a	dir
8ee	flu2-
8cc#	-stern
8b	al-
8a	-le
=21	=21
8g	mei-
8f#	-ne
4f#}	Lust}
2r	.
=25	=25
*k[]	*
{4.g	{Weisst
8g	du
4.cc	nun
8g#	die
=26	=26
4a	Tra2-
4a}	-nen,}
2r	.
=27	=27
4r	.
{8a	{die
8a	ich
4.dd	wei-
8a#	-nen
=28	=28
2b}	kann,}
2r	.
=29	=29
{4.b	{sollst
8b	du
4.dd	nicht
8cc	sie
=30	=30
4b	se-
2a}	-hen,}
{8g	{du
8g	ge-
=31	=31
4f	-lieb-
8f	-ter,
8f	ge-
4.a	-lieb-
8a	-ter
=32	=32
2g}	Mann?}
2r	.
=35	=35
{4.cc	{Bleib'
8g	an
4.g	mie-
8f	-nem
=36	=36
4e	Her-
2g}	-zen,}
4r	.
=37	=37
{4.cc	{fu2h-
8g	-le
4.g	des-
8f	-sen
=38	=38
2e}	Schlag,}
4r	.
{8g	{dass
8g	ich
=39	=39
4.fn	fest
8fn	und
4.a	fe-
8a	-ster
=40	=40
4.g	nur
8g	dich
4.b	dru2k-
8b	-ken
=41	=41
2a	mag,
4.dd	fest
8cc	und
=42	=42
4cc	fe-
4b}	-ster!}
2r	.
=45	=45
*k[f#]	*
4r	.
{[2dd	{Hier
8dd]	|
8a#	an
=46	=46
4.b	mei-
8g	-nem
8g	Bet-
8g	-te
8.g	hat
16f#	die
=47	=47
8.b	Wie-
16a	-ge
4a}	Raum,}
2r	.
=48	=48
4r	.
{[2dd	{wo
8dd]	|
8a#	sie
=49	=49
4.b	still
8g	ver-
8g	-ber-
8g	-ge
8g	mei-
8f#	-nen
=50	=50
8b	hol-
8a	-den
4a}	Traum;}
4r	.
{8g	{kom-
8a	-men
=51	=51
4.b	wird
8b	der
(bq	Mor-
8dd)	|
8dd	-gen,
8dd	wo
8dd	der
=52	=52
4.cc	Traum
8g#	er-
4a}	-wacht,}
{8a	{und
8a	dar-
=53	=53
4.a	-aus
8a	dein
8ee	Bild-
8g	-nis
8g	mir
8f#	ent-
=54	=54
8.b	-ge-
16a	-gen
4a}	lacht,}
2r	.
=57	=57
2r	.
4r	.
8r	.
{8f#	{dein
=58	=58
4a	Bild-
4g}	-nis!}
2r	.
*-	*-
